X: 8
T: Old Favourite, The
Z: tziguk
S: https://thesession.org/tunes/56#setting53272
R: jig
M: 6/8
L: 1/8
K: Gmaj
|:B3 BAB|dBA G2B|ded d2 B|ded B2A|
B2B BAB|dBA G2B|ded cBA|1 G3 GAA:|2 G3 GBd||
|:g3 f3|e3 edB|ded ded|ded B2d|g3 f3|
ege d2B|1 dge dBA|G3 GBd:|2 dge dge|dge dBA||

